icons/folder-debug.svg

<svg xmlns="http://www.w3.org/2000/svg" viewBox="0 0 32 32">
  <path d="M13.84376,7.53645l-1.28749-1.0729A2,2,0,0,0,11.27591,6H4A2,2,0,0,0,2,8V24a2,2,0,0,0,2,2H28a2,2,0,0,0,2-2V10a2,2,0,0,0-2-2H15.12412A2,2,0,0,1,13.84376,7.53645Z" style="fill: #f9a825"/>
  <path d="M32,18V16H29.65326a6.02135,6.02135,0,0,0-1.71747-2.52155L30,11.41418,28.58582,10l-2.4123,2.41223a5.93616,5.93616,0,0,0-4.347,0L19.41418,10,18,11.41418l2.06421,2.06427A6.02135,6.02135,0,0,0,18.34674,16H16v2h2v2H16v2h2v2H16v2h2.34875a5.99208,5.99208,0,0,0,11.3025,0H32V24H30V22h2V20H30V18Zm-6,8H22V24h4Zm0-6H22V18h4Z" style="fill: #fff9c4;fill-rule: evenodd"/>
</svg>

<svg xmlns="http://www.w3.org/2000/svg" viewBox="0 0 32 32"><path fill="#f9a825" d="m13.844 7.536-1.288-1.072A2 2 0 0 0 11.276 6H4a2 2 0 0 0-2 2v16a2 2 0 0 0 2 2h24a2 2 0 0 0 2-2V10a2 2 0 0 0-2-2H15.124a2 2 0 0 1-1.28-.464Z"/><path fill="#fff9c4" fill-rule="evenodd" d="M32 18v-2h-2.347a6.021 6.021 0 0 0-1.717-2.522L30 11.414 28.586 10l-2.412 2.412a5.936 5.936 0 0 0-4.347 0L19.414 10 18 11.414l2.064 2.064A6.021 6.021 0 0 0 18.347 16H16v2h2v2h-2v2h2v2h-2v2h2.349a5.992 5.992 0 0 0 11.302 0H32v-2h-2v-2h2v-2h-2v-2Zm-6 8h-4v-2h4Zm0-6h-4v-2h4Z"/></svg>
